X:1
T:O terra tu puoi
T:Ruggiero Giovanelli c 1560 - 1625
T:O terra tu puoi
T:(C) Wim Looyestijn - 2018. May be freely copied for non-commercial use.
T:(C) Wim Looyestijn - 2018. May be freely copied for non-commercial use.
T:(C) Wim Looyestijn - 2018. May be freely copied for non-commercial use.
T:(C) Wim Looyestijn - 2018. May be freely copied for non-commercial use.
T:(C) Wim Looyestijn - 2018. May be freely copied for non-commercial use.
T:(C) Wim Looyestijn - 2018. May be freely copied for non-commercial use.
C:Ruggiero Giovanelli
C:c 1560 - 1625
Z:(C) Wim Looyestijn - 2018. May be freely copied for non-commercial use.
%%score [ 1 2 3 4 ]
L:1/8
Q:1/4=80
M:4/4
K:C
V:1 treble nm="Canto" snm="C"
V:2 alto2 nm="Alto" snm="A"
V:3 alto nm="Tenor" snm="T"
V:4 tenor nm="Basso" snm="B"
V:1
 x8 |[M:2/2] z8 |[K:G] x8 |[M:4/4] B8 | B8 | E8- | E8 | z2 E2 E2 A,2 | C2 D2 E2 =F2 | C2 D2 E3 E | %10
w: |||O|ter-|ra,||o ter- ra|tu che puoi ter-|ra con- ten- ta-|
 F4 z4 | d8 | d8 | G4 G4- | G2 F2 G2 B2 | A2 G2 A3 A | G4 z2 G2 | A3 A F3 F | G3 G E3 E | %19
w: mi,|o|ter-|ra tu|* che puoi ter-|ra con- ten- ta-|mi, tra-|ghiot- ti il tris- to|cor- po in le tue|
 F3 F D2 D2 | E3 E E2 C2 | D3 D D2 B,2 | ^C2 D4 C2 | D4 F4 | G6 G2 | G4 F4 | E4 E4 | E2 D2 ^C3 C | %28
w: vis- ce- re, tra-|ghiot- ti il tris- to|cor- po in le|tue vi- sce-|re si|c'huo mai|no ne|tro- va or-|ma ne sen- ta-|
 ^C8 | z8 | z2 A2 F3 E | D2 D2 DEFG | A3 G F2 D2 | D2 D2 G4 | z2 E2 E2 E2 | A2 ^c2 c2 d2 | %36
w: mi,||o fol- go-|ri che fa- te il ciel tre-|mi- sce- te, ve-|ni- te a quel,|ve- ni- te a|quel ch'ad al- ta|
 d2 A4 d2- | d2 d2 A4 | z2 d2 B3 c | d2 d2 B3 c | d2 d2 B2 B2 | A2 G2 A3 A | A4 z2 A2 | %43
w: vo- ce chia-|* ma- vi|et vuol se|può, et vuol se|può di di- sa-|ma- re ad- di sce-|re, o|
 F3 E D2 D2 | DEFG A3 G | F2 A2 A2 A2 | d2 A2 A2 A2 | d4 z2 D2 | D2 D2 G4 | z2 E2 E2 E2 | %50
w: fol- go- ri che|fa- te il ciel tre- mi- sce-|te, ve- ni- te a|quel, ve- ni- te a|quel, ve-|ni- te a quel,|ve- ni- te a|
 A2 ^c2 c2 d2 | d4 A2 d2- | d2 d2 A4 | z2 d2 B3 c | d2 d2 B3 c | d2 D2 D2 D2 | E6 D2 | %57
w: quel ch'ad al- ta|vo- ce chia-|* ma- vi|et vuol se|può, et vuol se|può di di- sa-|ma- re|
 ^C2 D2 E3 E | F4 A4 | A2 F2 E2 D2 | E6 E2 | E4 ^C4 | E2 E2 ^D2 E2 | ^D6 D2 | E16 |] %65
w: ad- di- * sce-|re, di|di- sa- ma- re ad-|di- sce-|re, di|di- sa- ma- re ad-|di- sce-|re.|
V:2
 x8 |[M:2/2] z8 |[K:G][K:treble-8] x8 |[M:4/4] z8 | B8 | B8 | ^c4 z2 e2 | e2 A2 c3 d | %8
w: ||||O|ter-|ra, o|ter- ra tu che|
 e2 f2 c2 d2 | e2 d2 ^c3 c | d2 d2 d2 A2 | A2 B2 B2 A2 | B2 d2 d3 d | d2 d2 B2 B2 | A2 A2 B2 d2 | %15
w: puoi ter- ra con-|ten- * * ta-|mi, o ter- ra|tu che puoi ter-|ra con- ten- ta-|mi, o ter- ra|tu che puoi ter-|
 f2 g2 f3 f | g2 d2 e3 e | c3 c d3 d | B3 B c3 c | A2 A2 B3 B | G3 G c3 c | B6 G2 | A6 A2 | %23
w: ra con- ten- ta-|mi, tra- ghiot- ti il|tris- to cor- po in|le tue vis- ce-|re, tra- ghiot- ti il|tris- to cor- po in|le tue|vis- ce-|
 A4 z2 d2 | d6 d2 | e4 d4 | c4 c4 | c2 A2 A3 A | A8- | A4 z2 A2 | F3 E D2 D2 | DEFG A3 G | %32
w: re si|c'huo mai|no ne|tro- va or-|ma ne sen- ta-|mi,|* o|fol- go- ri che|fa- te il ciel tre- mi- sce-|
 F2 F2 A2 A2 | B4 z2 G2 | G2 G2 c2 e2 | e2 e2 a2 f2 | f2 f2 f4 | f2 g4 f2 | g4 z2 d2 | B3 c d2 d2 | %40
w: te, ve- ni- te a|quel, ve-|ni- te a quel ch'ad|al- ta vo- ce|chia- ma- vi|et vuol se|può, et|vuol se può di|
 d2 d2 e4- | e2 d2 e3 e | f4 z4 | z4 z2 A2 | F3 E D2 D2 | DEFG A3 G | F4 z2 A2 | A2 A2 d4 | %48
w: di- sa- ma-|* re ad- di sce-|re,|o|fol- go- ri che|fa- te il ciel tre- mi- sce-|te, ve-|ni- te a quel,|
 z4 z2 G2 | G2 G2 c2 e2 | e2 e2 a2 f2 | f2 f2 f4 | f2 g4 f2 | g4 z2 d2 | B3 c d2 d2 | B3 c d2 B2 | %56
w: ve-|ni- te a quel ch'ad|al- ta vo- ce|chia- ma- vi|et vuol se|può, et|vuol se può, et|vuol se può di|
 B2 B2 ^c2 d2 | e2 d2 ^c3 c | d4 z2 d2 | d2 d2 B2 A2 | B6 B2 | ^c4 z2 e2 | c2 c2 B2 A2 | B6 B2 | %64
w: di- sa- ma- re ad-|di- * * sce-|re, di|di- sa- ma- re ad-|di- sce-|re, di|di- sa- ma- re ad-|di- sce-|
 B16 |] %65
w: re.|
V:3
 x8 |[M:2/2] z8 |[K:G][K:treble-8] x8 |[M:4/4] z8 | ^G8 | ^G8 | A8 | z8 | z4 A4 | A8 | D8 | %11
w: ||||O|ter-|ra,||o|ter-|ra,|
 z2 G2 G2 D2 | G2 F2 G2 A2 | B2 B2 d4- | d2 d2 G4 | z2 G2 d3 d | B3 B c3 c | A3 A B3 B | %18
w: o ter- ra|tu che puoi ter-|ra con- ten-|* ta- mi,|tra- ghiot- ti il|tris- to cor- po in|le tue vis- ce-|
 G2 G2 A3 A | F3 F G4 | E2 E2 A3 A | F3 F G3 G | E2 F2 E3 E | D4 A4 | B6 B2 | B4 B4 | G4 G4 | %27
w: re, tra- ghiot- ti il|tris- to cor-|po, tra- ghiot- ti il|tris- to cor- po in|le tue vis- ce-|re, si|c'huo mai|no ne|tro- va or-|
 G2 F2 E3 E | E4 z2 A2 | F3 E D2 D2 | DEFG A3 G | F4 z2 A2 | A2 A2 d4 | z2 B2 B2 B2 | e4 z4 | %35
w: ma ne sen- ta-|mi, o|fol- go- ri che|fa- te il ciel tre- mi- sce-|te, ve-|ni- te a quel,|ve- ni- te a|quel,|
 z4 z2 D2 | D2 D2 D2 D2 | d6 d2 | G2 B2 G3 A | B2 B2 G3 A | B2 B2 B2 B2 | ^c2 d2 c3 c | %42
w: ch'ad|al- ta vo- ce|chia- ma-|vi et vuol se|può, et vuol se|può di di- sa-|ma- re ad- di sce-|
 d2 A2 F3 E | D2 D2 DEFG | A3 G F4 | z2 D2 DEFG | A3 G F2 D2 | DEFG A3 A | B2 B2 B2 B2 | e4 z4 | %50
w: re, o fol- go-|ri che fa- te il ciel tre-|mi- sce- te,|che fa- te il ciel tre-|mi- sce- te, che|fa- te il ciel tre- mi- sce-|te, ve- ni- te a|quel,|
 z4 z2 D2 | D2 D2 D2 D2 | d6 d2 | G2 B2 G3 A | B2 B2 G3 A | B4 G4 | G2 G2 A2 B2 | A6 A2 | D4 F4 | %59
w: ch'ad|al- ta vo- ce|chia- ma-|vi et vuol se|può, et vuol se|può di|di- sa- ma- re ad-|di- sce-|re, di|
 F2 A2 ^G2 A2 | ^G6 G2 | A4 A4 | A2 A2 F2 E2 | F6 F2 | E16 |] %65
w: di- sa- ma- re ad-|di- sce-|re, di|di- sa- ma- re ad-|di- sce-|re.|
V:4
 x8 |[M:2/2] z8 |[K:G][K:bass] x8 |[M:4/4] z8 | E,8 | E,8 | A,,8 | A,8 | A,8 | A,,8 | z4 z2 D,2 | %11
w: ||||O|ter-|ra,|o|ter-|ra,|o|
 D,2 G,,2 G,2 F,2 | G,2 A,2 B,2 F,2 | G,6 G,2 | D,4 z4 | z4 z2 D,2 | G,3 G, E,3 E, | %17
w: ter- ra tu che|puoi ter- ra con-|ten- ta-|mi,|tra-|ghiot- ti il tris- to|
 =F,3 F, D,3 D, | E,3 E, C,2 C,2 | D,3 D, B,,3 B,, | C,3 C, A,,3 A,, | B,,6 B,,2 | A,,8 | z4 D,4 | %24
w: cor- po in le tue|vis- ce- re, tra-|ghiot- ti il tris- to|cor- po in le tue|vi- sce-|re|si|
 G,6 G,2 | E,4 B,,4 | C,4 C,4 | C,2 D,2 A,,3 A,, | A,,8 | z2 A,2 F,3 E, | D,2 D,2 D,E,F,G, | %31
w: c'huo mai|no ne|tro- va or-|ma ne sen- ta-|mi,|o fol- go-|ri che fa- te il ciel tre-|
 A,2 A,2 D,4 | z2 D,2 D,2 D,2 | G,4 z2 E,2 | E,2 E,2 A,2 A,2 | A,2 A,2 A,2 A,2 | D6 D2 | D,8 | %38
w: mi- sce- te,|ve- ni- te a|quel, ve-|ni- te a quel ch'ad|al- ta vo- ce|chia- ma-|vi|
 z4 z2 B,2 | G,3 A, B,4 | G,4 G,2 G,2 | A,2 B,2 A,3 A, | D,8 | z2 A,2 F,3 E, | D,2 D,2 D,E,F,G, | %45
w: et|vuol se può|di di- sa-|ma- re ad- di sce-|re,|o fol- go-|ri che fa- te il ciel tre-|
 A,3 G, F,2 D,2 | D,E,F,G, A,3 G, | F,2 D,2 D,2 D,2 | G,4 z2 E,2 | E,2 E,2 A,2 A,2 | %50
w: mi- sce- te, che|fa- te il ciel tre- mi- sce-|te, ve- ni- te a|quel, ve-|ni- te a quel ch'ad|
 A,2 A,2 A,2 A,2 | D6 D2 | D,8 | z4 z2 B,2 | G,3 A, B,2 B,2 | G,3 A, B,4 | z8 | z8 | z4 D,4 | %59
w: al- ta vo- ce|chia- ma-|vi|et|vuol se può, et|vuol se può|||di|
 D,2 D,2 E,2 =F,2 | E,6 E,2 | A,,4 A,,4 | A,,2 A,,2 B,,2 C,2 | B,,6 B,,2 | E,16 |] %65
w: di- sa- ma- re ad-|di- sce-|re, di|di- sa- ma- re ad-|di- sce-|re.|

